icons/clip.svg

<svg width="24" height="24" viewBox="0 0 24 24" fill="none" xmlns="http://www.w3.org/2000/svg">
<path fill-rule="evenodd" clip-rule="evenodd" d="M16.301 12.573C16.4832 12.7616 16.584 13.0142 16.5817 13.2764C16.5794 13.5386 16.4742 13.7894 16.2888 13.9748C16.1034 14.1602 15.8526 14.2654 15.5904 14.2677C15.3282 14.2699 15.0756 14.1691 14.887 13.987L11.39 10.49C10.315 9.41498 9.628 9.34998 8.864 10.113C8.096 10.881 8.161 11.569 9.237 12.643L14.851 18.258C16.36 19.743 17.625 19.736 19.126 18.236C20.625 16.737 20.626 15.483 19.132 13.989L12.073 6.92998C9.616 4.46798 7.528 4.37798 5.328 6.57798C3.128 8.77798 3.218 10.866 5.68 13.324L10.616 18.26C10.7115 18.3522 10.7877 18.4626 10.8401 18.5846C10.8925 18.7066 10.9201 18.8378 10.9212 18.9706C10.9224 19.1034 10.8971 19.235 10.8468 19.3579C10.7965 19.4808 10.7223 19.5925 10.6284 19.6864C10.5345 19.7803 10.4228 19.8545 10.3 19.9048C10.1771 19.9551 10.0454 19.9804 9.9126 19.9792C9.77982 19.9781 9.6486 19.9505 9.52659 19.8981C9.40459 19.8457 9.29425 19.7695 9.202 19.674L4.267 14.739C1.048 11.525 0.903 8.17298 3.913 5.16298C6.923 2.15298 10.275 2.29798 13.487 5.51598L20.545 12.574C22.821 14.85 22.818 17.37 20.539 19.649C18.263 21.926 15.739 21.938 13.442 19.677L7.822 14.057C6.018 12.254 5.835 10.312 7.448 8.69798C9.06 7.08598 11 7.27198 12.803 9.07498L16.301 12.573Z" fill="#3A3A47"/>
</svg>

<svg xmlns="http://www.w3.org/2000/svg" width="24" height="24" viewBox="0 0 24 24">
    <path fill="#3A3A47" fill-rule="evenodd" d="M16.301 12.573a1 1 0 0 1-1.414 1.414L11.39 10.49c-1.075-1.075-1.762-1.14-2.526-.377-.768.768-.703 1.456.373 2.53l5.614 5.615c1.509 1.485 2.774 1.478 4.275-.022 1.499-1.499 1.5-2.753.006-4.247l-7.059-7.059c-2.457-2.462-4.545-2.552-6.745-.352s-2.11 4.288.352 6.746l4.936 4.936a1 1 0 1 1-1.414 1.414l-4.935-4.935C1.048 11.525.903 8.173 3.913 5.163c3.01-3.01 6.362-2.865 9.574.353l7.058 7.058c2.276 2.276 2.273 4.796-.006 7.075-2.276 2.277-4.8 2.289-7.097.028l-5.62-5.62c-1.804-1.803-1.987-3.745-.374-5.359C9.06 7.086 11 7.272 12.803 9.075l3.498 3.498z"/>
</svg>
